public/library/hyperevmscan-icon-light.svg

<svg width="256" height="256" viewBox="0 0 256 256" fill="none" xmlns="http://www.w3.org/2000/svg">
<path d="M53.1981 121.678C53.1983 120.247 53.4808 118.829 54.0294 117.508C54.5779 116.186 55.3816 114.985 56.3944 113.976C57.4072 112.966 58.6091 112.166 59.9311 111.623C61.2532 111.08 62.6692 110.804 64.0981 110.811L82.1691 110.87C85.0504 110.87 87.8137 112.017 89.8512 114.058C91.8886 116.099 93.0332 118.868 93.0332 121.754V190.219C95.0685 189.614 97.6733 188.97 100.54 188.294C102.525 187.825 104.295 186.699 105.562 185.097C106.829 183.495 107.518 181.511 107.519 179.467V94.5483C107.519 91.6614 108.663 88.8926 110.701 86.851C112.738 84.8095 115.501 83.6622 118.383 83.6617H136.509C139.39 83.6622 142.154 84.8095 144.191 86.851C146.228 88.8926 147.373 91.6614 147.373 94.5483V173.367C147.373 173.367 151.907 171.528 156.322 169.66C157.962 168.965 159.362 167.802 160.347 166.315C161.331 164.828 161.857 163.083 161.858 161.299V67.3359C161.858 64.4495 163.003 61.6813 165.04 59.6401C167.077 57.5989 169.839 56.4519 172.72 56.4514H190.827C193.707 56.4542 196.467 57.6022 198.502 59.6431C200.538 61.6841 201.681 64.451 201.681 67.3359V144.711C217.379 133.313 233.288 119.603 245.913 103.119C247.745 100.726 248.957 97.9164 249.442 94.9402C249.926 91.964 249.667 88.9139 248.689 86.0621C242.845 69.2168 233.555 53.7793 221.414 40.7375C209.273 27.6956 194.548 17.3366 178.182 10.3234C161.816 3.31013 144.168 -0.202915 126.369 0.00905138C108.57 0.221017 91.0109 4.15332 74.8157 11.5543C58.6204 18.9553 44.1456 29.6621 32.3174 42.9894C20.4893 56.3167 11.5683 71.9711 6.1254 88.9508C0.682469 105.931 -1.16255 123.862 0.708394 141.597C2.57934 159.332 8.12505 176.48 16.9906 191.945C18.5352 194.613 20.8077 196.784 23.541 198.202C26.2743 199.621 29.355 200.228 32.421 199.954C35.8463 199.651 40.1109 199.225 45.1813 198.629C47.388 198.377 49.4253 197.321 50.9052 195.662C52.3851 194.003 53.2042 191.856 53.2065 189.631V121.678" fill="black"/>
<path d="M52.8047 231.477C71.8906 245.388 94.4456 253.738 117.974 255.603C141.503 257.468 165.088 252.775 186.12 242.045C207.152 231.314 224.811 214.963 237.143 194.801C249.476 174.64 256.001 151.453 255.996 127.806C255.996 124.848 255.859 121.936 255.663 119.033C208.918 188.881 122.608 221.535 52.8047 231.477Z" fill="#0B9F88"/>
</svg>

<svg xmlns="http://www.w3.org/2000/svg" width="256" height="256" fill="none" viewBox="0 0 256 256"><path fill="#000" d="M53.198 121.678a10.88 10.88 0 0 1 6.733-10.055 10.8 10.8 0 0 1 4.167-.812l18.071.059c2.881 0 5.645 1.147 7.682 3.188a10.9 10.9 0 0 1 3.182 7.696v68.465c2.035-.605 4.64-1.249 7.507-1.925a9.06 9.06 0 0 0 5.022-3.197 9.1 9.1 0 0 0 1.957-5.63V94.548c0-2.887 1.144-5.655 3.182-7.697a10.85 10.85 0 0 1 7.682-3.19h18.126c2.881.001 5.645 1.148 7.682 3.19a10.9 10.9 0 0 1 3.182 7.697v78.819s4.534-1.839 8.949-3.707a9.08 9.08 0 0 0 5.536-8.361V67.336c0-2.886 1.145-5.655 3.182-7.696a10.85 10.85 0 0 1 7.68-3.189h18.107c2.88.003 5.64 1.151 7.675 3.192a10.9 10.9 0 0 1 3.179 7.693v77.375c15.698-11.398 31.607-25.108 44.232-41.592a18.3 18.3 0 0 0 2.776-17.057 128.2 128.2 0 0 0-27.275-45.324 127.9 127.9 0 0 0-43.232-30.415 127.68 127.68 0 0 0-103.366 1.231A127.9 127.9 0 0 0 32.317 42.99 128.2 128.2 0 0 0 6.125 88.951a128.4 128.4 0 0 0-5.417 52.646 128.3 128.3 0 0 0 16.283 50.348 16.2 16.2 0 0 0 6.55 6.257 16.15 16.15 0 0 0 8.88 1.752c3.425-.303 7.69-.729 12.76-1.325a9.05 9.05 0 0 0 5.724-2.967 9.07 9.07 0 0 0 2.301-6.031v-67.953"/><path fill="#0b9f88" d="M52.805 231.477a127.8 127.8 0 0 0 65.169 24.126 127.74 127.74 0 0 0 68.146-13.558 128 128 0 0 0 51.023-47.244 128.34 128.34 0 0 0 18.853-66.995c0-2.958-.137-5.87-.333-8.773-46.745 69.848-133.055 102.502-202.858 112.444"/></svg>
